resources/haticons/SVG/ted1.svg

<!-- Generated by IcoMoon.io -->
<svg version="1.1" xmlns="http://www.w3.org/2000/svg" width="24" height="24" viewBox="0 0 24 24">
<title>ted1</title>
<path fill="#e62b1e" d="M2.431 9.886h-2.431v-2.221h7.53v2.221h-2.43v6.45h-2.669zM7.945 7.665h7.31v2.221h-4.638v1.083h4.638v2.063h-4.638v1.080h4.638v2.225h-7.31zM18.375 14.116h1.046c1.664 0 1.907-1.352 1.907-2.166 0-0.545-0.179-2.063-2.115-2.063h-0.854v4.23zM15.705 7.665h4.384c2.891 0 3.911 2.135 3.911 4.32 0 2.66-1.409 4.351-4.434 4.351h-3.861v-8.673z"></path>
</svg>

<svg xmlns="http://www.w3.org/2000/svg" width="24" height="24"><path fill="#e62b1e" d="M2.431 9.886H0V7.665h7.53v2.221H5.1v6.45H2.431zm5.514-2.221h7.31v2.221h-4.638v1.083h4.638v2.063h-4.638v1.08h4.638v2.225h-7.31zm10.43 6.451h1.046c1.664 0 1.907-1.352 1.907-2.166 0-.545-.179-2.063-2.115-2.063h-.854v4.23zm-2.67-6.451h4.384C22.98 7.665 24 9.8 24 11.985c0 2.66-1.409 4.351-4.434 4.351h-3.861V7.663z"/></svg>
